X: 952
M: C
L: 1/8
K: D
V: 1
|: (f/g/ |\
a)dab abaf | gbfa e/e/e Te(f/g/ |
a)dab abaf | geaf d/d/d d(f/g/ |\
a)dab abaf | gbfa e/e/e e(f/g/ |\
a)fge fdec | (d/c/B/A/) dF D/D/D D :|
V: 2 clef=bass middle=d
z |\
d2d2 d2d2 | d2d2 e2e2 |\
d2d2 d2d2 | G2A2 D2D :|\
|: z |\
d2d2 d2d2 | d2d2
e2e2 |\
d2d2 d2d2 | g2a2 d2d2 |\
d2d2 d2d2 | d2d2 e2e2 |\
d2e2 f2g2 | a2a2 d2d :|

